X: 0612
T: Sixteensome Reel - {40+{8x48}+40}R - in a square set
P: The Deil Amang the Tailors
N: {40+{8x48}+40}R - in a square set
R: reel
Z: 2011 John Chambers <jc:trillian.mit.edu>
M: C|
L: 1/8
K: A
(3e/f/g/ |\
"A"a2eg "E7"a2eg | "A"a2ea "F#7"fedc | "Bm"dfBf dfBf | "Bm"dfBa "E7"gabg |
"A"a2eg a2eg | "A"a2ea "C#/A"fedc | "D"defd "C#/A"ecBA \
|1 "E7"E2[G2D2] "A"[A3C3] :|2 "E7"E2[G2D2] "A"[A2C2]e2 ||
|:\
"A"ceAe ceAe | "A"ceag "F#7"fedc | "Bm"dfBf dfBf | "Bm"dfba "E7"gfed |
"A"ceAe ceAe | "A"ceag "F#m"fedc | "D"defd "C#/A"ecBA \
|1 "E7"E2[G2D2] "A"[A3C3]e2 :|2 "E7"E2[G2D2] "A"[A4C4] |]
%%center Book06/0612-Sixteensome_Reel-JC.abc

%%sep 3 1 500
%%sep 1 1 500
%%newpage
%%center OTHER TRANSCRIPTIONS
%%sep 3 1 500
%%sep 1 1 500

%%sep 1 1 500
%%sep 1 1 500

